X:1
T:Title
%%score { 1 | 2 }
L:1/8
Q:1/4=100
M:4/4
K:Bb
V:1 treble nm="Grand Piano"
V:2 bass 
V:1
 [DF][DF][DF][DF] [EG][DF][B,D][DF] | [DB]2 [EB]2 [DB]4 | ccBc [Fd][DB][DB][DA] | [=EG]2 [Ec]2 F4 | %4
w: Walter~G.~Tyler * * * * * * *||||
 ceGA [DB]2 [DF]2 | ceGA [DB]4 | [DF][DF][FB][FA] [EG][EG][Gd][Gc] | [FB]2 [EA]2 [DB]4 |] %8
w: ||||
V:2
 [B,,B,][B,,B,][B,,B,][B,,B,] [B,,B,][B,,B,][B,,F,][B,,B,] | [B,,F,]2 [E,G,]2 [B,,F,]4 | %2
 [F,A,F][F,A,F][F,G,F][F,A,F] [B,,B,][B,,F,][B,,F,][B,,F,] | [C,B,]2 [C,B,]2 [F,A,]4 | %4
 [F,A,F][F,A,F][F,CE][F,CE] [B,,B,]2 [B,,B,]2 | [F,A,F][F,A,F][F,CE][F,CE] [B,,B,]4 | %6
 [B,,B,][B,,B,][D,B,][D,B,] [E,B,][E,B,][E,E][E,E] | [F,D]2 [F,C]2 [B,,B,]4 |] %8

